flaticon/medical/molar-5.svg

<svg xmlns="http://www.w3.org/2000/svg" width="32" height="32" viewBox="0 0 24 24">
    <path d="M5.867188 2.417969C3.644531 3.203125 2.996094 5.988281 3.335938 8.242188 3.367188 8.453125 3.546875 8.601562 3.753906 8.601562 3.777344 8.601562 3.796875 8.601562 3.820312 8.597656 4.050781 8.5625 4.210938 8.347656 4.175781 8.117188 3.886719 6.195312 4.378906 3.84375 6.148438 3.214844 6.371094 3.136719 6.484375 2.894531 6.40625 2.675781 6.328125 2.453125 6.089844 2.339844 5.867188 2.417969zM10.234375 7.03125C10.183594 6.90625 10.128906 6.78125 10.082031 6.65625 9.996094 6.433594 9.75 6.328125 9.53125 6.414062 9.3125 6.5 9.207031 6.746094 9.289062 6.960938 9.34375 7.097656 9.398438 7.234375 9.457031 7.367188 9.527344 7.527344 9.683594 7.625 9.847656 7.625 9.902344 7.625 9.960938 7.613281 10.015625 7.589844 10.230469 7.496094 10.328125 7.246094 10.234375 7.03125zM9.601562 5.097656C9.570312 4.964844 9.542969 4.832031 9.515625 4.695312 9.472656 4.464844 9.246094 4.3125 9.019531 4.359375 8.789062 4.40625 8.640625 4.628906 8.683594 4.859375 8.710938 5 8.742188 5.144531 8.773438 5.285156 8.820312 5.484375 8.992188 5.617188 9.1875 5.617188 9.21875 5.617188 9.25 5.613281 9.28125 5.605469 9.511719 5.554688 9.652344 5.324219 9.601562 5.097656zM8.917969 3.523438C9.152344 3.511719 9.335938 3.316406 9.324219 3.082031 9.320312 2.945312 9.316406 2.808594 9.316406 2.671875 9.3125 2.4375 9.125 2.25 8.890625 2.25 8.890625 2.25 8.890625 2.25 8.886719 2.25 8.652344 2.253906 8.464844 2.445312 8.46875 2.679688 8.46875 2.824219 8.472656 2.972656 8.480469 3.117188 8.488281 3.34375 8.675781 3.523438 8.902344 3.523438 8.910156 3.523438 8.914062 3.523438 8.917969 3.523438zM10.984375 8.480469C10.863281 8.28125 10.601562 8.21875 10.402344 8.339844 10.203125 8.460938 10.140625 8.722656 10.261719 8.921875 10.335938 9.046875 10.414062 9.167969 10.496094 9.292969 10.574219 9.414062 10.710938 9.484375 10.851562 9.484375 10.929688 9.484375 11.011719 9.460938 11.082031 9.414062 11.277344 9.285156 11.332031 9.023438 11.203125 8.824219 11.128906 8.710938 11.054688 8.597656 10.984375 8.480469zM15.683594 12.9375C15.5625 12.871094 15.441406 12.804688 15.324219 12.734375 15.125 12.613281 14.863281 12.679688 14.746094 12.878906 14.625 13.082031 14.691406 13.34375 14.890625 13.460938 15.015625 13.535156 15.144531 13.609375 15.269531 13.679688 15.335938 13.714844 15.40625 13.734375 15.476562 13.734375 15.625 13.734375 15.769531 13.652344 15.847656 13.515625 15.960938 13.308594 15.886719 13.050781 15.683594 12.9375zM17.546875 13.792969C17.417969 13.746094 17.289062 13.695312 17.160156 13.644531 16.945312 13.554688 16.699219 13.660156 16.609375 13.878906 16.519531 14.09375 16.625 14.34375 16.84375 14.429688 16.976562 14.484375 17.113281 14.535156 17.25 14.585938 17.296875 14.605469 17.347656 14.613281 17.398438 14.613281 17.570312 14.613281 17.730469 14.507812 17.796875 14.339844 17.875 14.117188 17.765625 13.875 17.546875 13.792969zM19.515625 14.359375C19.378906 14.332031 19.246094 14.304688 19.117188 14.269531 18.886719 14.214844 18.660156 14.355469 18.601562 14.582031 18.546875 14.808594 18.6875 15.039062 18.914062 15.09375 19.054688 15.128906 19.199219 15.160156 19.34375 15.191406 19.371094 15.199219 19.398438 15.199219 19.429688 15.199219 19.625 15.199219 19.800781 15.0625 19.84375 14.863281 19.890625 14.632812 19.746094 14.410156 19.515625 14.359375zM13.65625 11.554688C13.472656 11.402344 13.207031 11.429688 13.058594 11.609375 12.90625 11.789062 12.933594 12.058594 13.113281 12.207031 13.226562 12.300781 13.335938 12.390625 13.453125 12.480469 13.53125 12.539062 13.621094 12.570312 13.710938 12.570312 13.839844 12.570312 13.964844 12.511719 14.046875 12.40625 14.191406 12.222656 14.160156 11.953125 13.972656 11.8125 13.867188 11.726562 13.757812 11.640625 13.65625 11.554688zM12.191406 10.125C12.039062 9.949219 11.769531 9.933594 11.59375 10.085938 11.417969 10.238281 11.398438 10.507812 11.550781 10.683594 11.648438 10.792969 11.746094 10.902344 11.84375 11.007812 11.925781 11.097656 12.039062 11.144531 12.152344 11.144531 12.257812 11.144531 12.359375 11.105469 12.441406 11.027344 12.613281 10.871094 12.625 10.601562 12.464844 10.429688 12.371094 10.332031 12.28125 10.230469 12.191406 10.125zM12.191406 10.125"/>
    <path d="M 22.863281 8.542969 C 22.867188 8.539062 22.863281 8.53125 22.863281 8.527344 C 22.890625 7.949219 22.890625 7.375 22.855469 6.808594 C 22.855469 6.800781 22.859375 6.792969 22.859375 6.785156 C 22.855469 6.722656 22.851562 6.664062 22.84375 6.601562 C 22.84375 6.578125 22.839844 6.550781 22.839844 6.527344 C 22.835938 6.464844 22.832031 6.40625 22.824219 6.347656 C 22.824219 6.335938 22.820312 6.328125 22.816406 6.320312 C 22.761719 5.738281 22.667969 5.167969 22.527344 4.609375 C 22.527344 4.605469 22.527344 4.601562 22.527344 4.597656 L 22.507812 4.519531 C 22.503906 4.519531 22.503906 4.519531 22.503906 4.515625 C 22.503906 4.515625 22.503906 4.511719 22.503906 4.511719 C 22.46875 4.386719 22.433594 4.265625 22.390625 4.148438 C 22.386719 4.136719 22.378906 4.132812 22.375 4.125 C 22.175781 3.585938 21.867188 3.0625 21.457031 2.566406 C 21.453125 2.5625 21.453125 2.558594 21.449219 2.554688 C 21.351562 2.4375 21.25 2.324219 21.144531 2.214844 C 21.144531 2.210938 21.140625 2.210938 21.140625 2.210938 C 20.75 1.804688 20.292969 1.425781 19.773438 1.078125 C 19.769531 1.074219 19.765625 1.066406 19.757812 1.066406 L 19.644531 0.988281 C 19.554688 0.929688 19.460938 0.875 19.367188 0.824219 C 19.363281 0.820312 19.359375 0.820312 19.355469 0.816406 C 18.839844 0.527344 18.269531 0.3125 17.667969 0.175781 C 17.664062 0.175781 17.664062 0.171875 17.660156 0.171875 C 17.609375 0.160156 17.5625 0.15625 17.511719 0.144531 C 17.425781 0.128906 17.335938 0.109375 17.246094 0.09375 C 17.234375 0.09375 17.222656 0.0898438 17.210938 0.0898438 C 17.210938 0.0859375 17.207031 0.0898438 17.203125 0.0898438 C 16.621094 -0.00390625 16.019531 -0.0234375 15.410156 0.0234375 C 15.40625 0.0234375 15.40625 0.0234375 15.40625 0.0234375 C 15.394531 0.0273438 15.382812 0.0273438 15.367188 0.0273438 C 15.234375 0.0390625 15.101562 0.0546875 14.96875 0.0703125 C 14.964844 0.0742188 14.960938 0.0742188 14.957031 0.0742188 C 14.375 0.152344 13.792969 0.292969 13.21875 0.5 C 13.21875 0.5 13.214844 0.5 13.214844 0.5 C 13.085938 0.546875 12.964844 0.59375 12.84375 0.644531 L 12.785156 0.667969 L 12.757812 0.679688 C 12.71875 0.695312 12.679688 0.714844 12.640625 0.726562 C 12.441406 0.796875 12.289062 0.855469 12.167969 0.902344 C 11.851562 1.027344 11.785156 1.046875 11.433594 0.953125 C 11.390625 0.941406 11.34375 0.925781 11.292969 0.914062 C 11.285156 0.910156 11.277344 0.90625 11.269531 0.90625 C 11.21875 0.890625 11.167969 0.875 11.101562 0.855469 L 11.03125 0.835938 C 10.355469 0.640625 9.617188 0.445312 8.867188 0.3125 L 8.683594 0.273438 L 8.683594 0.28125 C 7.460938 0.078125 6.214844 0.0429688 5.15625 0.417969 C 2.726562 1.28125 0.574219 4.128906 1.238281 8.558594 C 1.320312 9.082031 1.394531 9.609375 1.472656 10.140625 C 2.03125 13.964844 2.605469 17.917969 4.082031 21.488281 L 4.132812 21.609375 C 4.5 22.503906 5.113281 24 6.183594 24 L 6.269531 24 L 6.351562 23.96875 C 7.332031 23.550781 7.699219 22.609375 7.96875 21.921875 C 8.148438 21.457031 8.308594 20.984375 8.464844 20.527344 C 8.671875 19.925781 8.871094 19.34375 9.109375 18.78125 C 9.648438 19.878906 10.746094 21.664062 12.199219 21.664062 C 12.371094 21.664062 12.546875 21.640625 12.726562 21.585938 C 13.683594 21.304688 14.160156 20.316406 14.511719 19.597656 L 14.539062 19.539062 C 14.613281 19.386719 14.707031 19.210938 14.808594 19.023438 C 14.910156 18.832031 15.019531 18.621094 15.128906 18.402344 C 15.234375 18.746094 15.328125 19.097656 15.417969 19.445312 C 15.519531 19.832031 15.621094 20.234375 15.746094 20.609375 C 16.257812 22.191406 16.925781 23.820312 17.976562 23.929688 C 18.535156 23.984375 19.046875 23.609375 19.5 22.8125 C 20.332031 21.355469 20.6875 19.734375 21.03125 18.164062 L 21.152344 17.617188 C 21.289062 17.007812 21.441406 16.382812 21.59375 15.742188 C 21.65625 15.488281 21.71875 15.226562 21.78125 14.964844 L 21.785156 14.9375 C 21.917969 14.390625 22.046875 13.832031 22.167969 13.269531 C 22.167969 13.269531 22.171875 13.265625 22.171875 13.261719 L 22.230469 12.976562 C 22.230469 12.972656 22.234375 12.96875 22.234375 12.96875 L 22.261719 12.84375 C 22.261719 12.839844 22.261719 12.839844 22.261719 12.835938 C 22.375 12.277344 22.480469 11.71875 22.574219 11.152344 C 22.574219 11.148438 22.578125 11.144531 22.578125 11.140625 C 22.59375 11.050781 22.605469 10.957031 22.621094 10.863281 C 22.625 10.847656 22.625 10.828125 22.628906 10.808594 C 22.632812 10.777344 22.640625 10.746094 22.644531 10.710938 C 22.644531 10.710938 22.644531 10.707031 22.644531 10.703125 C 22.726562 10.136719 22.792969 9.566406 22.832031 9 C 22.835938 8.992188 22.835938 8.988281 22.839844 8.980469 C 22.84375 8.882812 22.851562 8.789062 22.855469 8.691406 C 22.855469 8.683594 22.855469 8.679688 22.859375 8.671875 C 22.859375 8.628906 22.863281 8.585938 22.863281 8.542969 Z M 14.058594 18.625 C 13.953125 18.824219 13.855469 19.007812 13.777344 19.167969 L 13.75 19.226562 C 13.453125 19.835938 13.082031 20.597656 12.484375 20.773438 C 11.074219 21.191406 9.773438 18.226562 9.632812 17.886719 L 9.59375 17.796875 C 9.640625 17.71875 9.683594 17.644531 9.726562 17.574219 C 9.78125 17.484375 9.839844 17.390625 9.898438 17.300781 C 10.40625 16.558594 11.777344 14.941406 13.527344 15.984375 C 13.664062 16.066406 13.789062 16.160156 13.902344 16.257812 C 13.945312 16.296875 13.984375 16.339844 14.027344 16.378906 C 14.09375 16.441406 14.15625 16.507812 14.21875 16.578125 C 14.273438 16.644531 14.328125 16.714844 14.378906 16.789062 C 14.414062 16.835938 14.445312 16.882812 14.480469 16.933594 C 14.546875 17.039062 14.613281 17.148438 14.675781 17.269531 C 14.679688 17.285156 14.6875 17.296875 14.695312 17.308594 C 14.527344 17.742188 14.28125 18.207031 14.058594 18.625 Z M 20.324219 17.429688 L 20.203125 17.984375 C 19.871094 19.488281 19.53125 21.046875 18.761719 22.390625 C 18.503906 22.84375 18.238281 23.101562 18.066406 23.082031 C 17.871094 23.0625 17.335938 22.757812 16.550781 20.347656 C 16.4375 19.996094 16.339844 19.625 16.238281 19.230469 C 15.902344 17.949219 15.527344 16.519531 14.4375 15.597656 C 14.433594 15.597656 14.433594 15.59375 14.429688 15.589844 C 14.285156 15.472656 14.132812 15.359375 13.960938 15.257812 C 12.34375 14.292969 10.519531 14.894531 9.199219 16.824219 C 9.128906 16.929688 9.054688 17.042969 8.980469 17.167969 C 8.382812 18.152344 8.015625 19.214844 7.664062 20.25 C 7.511719 20.699219 7.351562 21.164062 7.175781 21.613281 C 6.90625 22.308594 6.652344 22.867188 6.113281 23.140625 C 5.632812 23.023438 5.117188 21.773438 4.917969 21.285156 L 4.867188 21.160156 C 3.429688 17.691406 2.863281 13.789062 2.3125 10.015625 C 2.234375 9.484375 2.160156 8.957031 2.082031 8.429688 C 1.652344 5.585938 2.527344 2.25 5.441406 1.21875 C 5.917969 1.050781 6.453125 0.980469 7.019531 0.980469 C 7.539062 0.980469 8.078125 1.039062 8.613281 1.132812 C 8.664062 1.269531 8.785156 1.382812 8.945312 1.40625 C 8.964844 1.40625 8.984375 1.410156 9.003906 1.410156 C 9.125 1.410156 9.238281 1.355469 9.316406 1.269531 C 9.859375 1.386719 10.382812 1.527344 10.84375 1.664062 C 12.054688 2.351562 12.730469 2.886719 13.089844 3.449219 C 13.171875 3.574219 13.308594 3.644531 13.449219 3.644531 C 13.527344 3.644531 13.605469 3.621094 13.675781 3.578125 C 13.875 3.449219 13.929688 3.1875 13.804688 2.992188 C 13.515625 2.542969 13.101562 2.132812 12.480469 1.691406 C 12.597656 1.644531 12.738281 1.59375 12.917969 1.527344 C 12.976562 1.507812 13.035156 1.484375 13.09375 1.457031 L 13.164062 1.429688 C 13.167969 1.425781 13.171875 1.425781 13.171875 1.425781 C 14.46875 0.890625 15.84375 0.730469 17.082031 0.925781 C 17.128906 0.933594 17.175781 0.945312 17.222656 0.953125 C 17.9375 1.082031 18.609375 1.332031 19.1875 1.703125 C 20.503906 2.546875 21.386719 3.621094 21.683594 4.722656 C 21.683594 4.730469 21.6875 4.734375 21.6875 4.742188 C 21.851562 5.359375 21.949219 6 22 6.652344 C 22 6.664062 22 6.675781 22.003906 6.683594 C 22.148438 8.667969 21.832031 10.78125 21.394531 12.835938 L 21.386719 12.871094 C 21.261719 13.464844 21.125 14.050781 20.988281 14.628906 C 20.832031 14.675781 20.707031 14.816406 20.691406 14.992188 C 20.679688 15.125 20.734375 15.242188 20.824219 15.328125 C 20.804688 15.402344 20.789062 15.472656 20.769531 15.546875 C 20.613281 16.1875 20.460938 16.820312 20.324219 17.429688 Z M 20.324219 17.429688"/>
</svg>

<svg xmlns="http://www.w3.org/2000/svg" width="32" height="32" viewBox="0 0 24 24">
    <path d="M5.867 2.418c-2.222.785-2.87 3.57-2.531 5.824.031.211.21.36.418.36.023 0 .043 0 .066-.004.23-.036.39-.25.356-.48-.29-1.923.203-4.274 1.972-4.903a.42.42 0 0 0 .258-.54.42.42 0 0 0-.539-.257zm0 0M10.234 7.031c-.05-.125-.105-.25-.152-.375a.426.426 0 0 0-.793.305c.055.137.11.273.168.406a.429.429 0 0 0 .559.223.424.424 0 0 0 .218-.559zm0 0M9.602 5.098a12.171 12.171 0 0 1-.086-.403.422.422 0 0 0-.496-.336.429.429 0 0 0-.336.5c.027.141.058.286.09.426a.425.425 0 1 0 .828-.187zm0 0M8.918 3.523a.424.424 0 0 0 .406-.441 14.361 14.361 0 0 1-.008-.41.426.426 0 0 0-.425-.422h-.004a.423.423 0 0 0-.418.43c0 .144.004.293.011.437a.422.422 0 0 0 .422.406h.016zm0 0M10.984 8.48a.424.424 0 0 0-.722.442c.074.125.152.246.234.371a.424.424 0 0 0 .586.121.427.427 0 0 0 .121-.59 10.263 10.263 0 0 1-.219-.344zm0 0M15.684 12.938c-.121-.067-.243-.133-.36-.204a.424.424 0 0 0-.434.727c.126.074.255.148.38.219a.443.443 0 0 0 .207.054.427.427 0 0 0 .207-.797zm0 0M17.547 13.793c-.129-.047-.258-.098-.387-.148a.421.421 0 0 0-.55.234.42.42 0 0 0 .234.55c.133.055.27.106.406.157a.43.43 0 0 0 .547-.246.429.429 0 0 0-.25-.547zm0 0M19.516 14.36a5.955 5.955 0 0 1-.399-.09.43.43 0 0 0-.515.312.425.425 0 0 0 .312.512c.14.035.285.066.43.097a.425.425 0 0 0 .172-.832zm0 0M13.656 11.555a.422.422 0 0 0-.597.054.423.423 0 0 0 .054.598c.114.094.223.184.34.273a.43.43 0 0 0 .258.09.426.426 0 0 0 .336-.164.42.42 0 0 0-.074-.594c-.106-.085-.215-.171-.317-.257zm0 0M12.191 10.125a.425.425 0 0 0-.64.559c.097.109.195.218.293.324a.418.418 0 0 0 .597.02.421.421 0 0 0 .024-.598 6.878 6.878 0 0 1-.274-.305zm0 0"/>
    <path d="M22.863 8.543c.004-.004 0-.012 0-.016.028-.578.028-1.152-.008-1.718 0-.008.004-.016.004-.024a2.909 2.909 0 0 0-.015-.183c0-.024-.004-.051-.004-.075a2.564 2.564 0 0 0-.016-.18c0-.011-.004-.019-.008-.027a11.339 11.339 0 0 0-.289-1.71v-.012l-.02-.078c-.003 0-.003 0-.003-.004v-.004a4.934 4.934 0 0 0-.113-.364c-.004-.011-.012-.015-.016-.023a5.391 5.391 0 0 0-.918-1.559c-.004-.003-.004-.007-.008-.011-.097-.118-.199-.23-.304-.34 0-.004-.004-.004-.004-.004a8.269 8.269 0 0 0-1.368-1.133c-.003-.004-.007-.012-.015-.012l-.113-.078a3.974 3.974 0 0 0-.278-.164C19.363.82 19.36.82 19.355.816a6.312 6.312 0 0 0-1.687-.64c-.004 0-.004-.004-.008-.004-.05-.012-.098-.016-.148-.027-.086-.016-.176-.036-.266-.051-.012 0-.023-.004-.035-.004 0-.004-.004 0-.008 0A7.607 7.607 0 0 0 15.41.023h-.004c-.011.004-.023.004-.039.004-.133.012-.265.028-.398.043-.004.004-.008.004-.012.004A8.425 8.425 0 0 0 13.219.5h-.004c-.13.047-.25.094-.371.145l-.059.023-.027.012c-.04.015-.078.035-.117.047-.2.07-.352.128-.473.175-.316.125-.383.145-.734.051-.043-.012-.09-.027-.141-.039-.008-.004-.016-.008-.023-.008l-.168-.05-.07-.02A21.138 21.138 0 0 0 8.866.313l-.183-.04v.008C7.46.078 6.214.043 5.156.418c-2.43.863-4.582 3.71-3.918 8.14.082.524.157 1.051.235 1.583.558 3.824 1.132 7.777 2.609 11.347l.05.121C4.5 22.504 5.114 24 6.185 24h.086l.082-.031c.98-.418 1.347-1.36 1.617-2.047.18-.465.34-.938.496-1.395.207-.601.406-1.183.644-1.746.54 1.098 1.637 2.883 3.09 2.883.172 0 .348-.023.528-.078.957-.281 1.433-1.27 1.785-1.988l.027-.059c.074-.152.168-.328.27-.516.101-.191.21-.402.32-.62.105.343.2.695.289 1.042.102.387.203.79.328 1.164.512 1.582 1.18 3.211 2.23 3.32.56.055 1.07-.32 1.524-1.116.832-1.458 1.188-3.079 1.531-4.649l.121-.547c.137-.61.29-1.234.442-1.875.062-.254.125-.515.187-.777l.004-.027c.133-.547.262-1.106.383-1.668 0 0 .004-.004.004-.008l.058-.285c0-.004.004-.008.004-.008l.028-.125v-.008c.113-.559.218-1.117.312-1.684 0-.004.004-.007.004-.011.016-.09.027-.184.043-.278.004-.015.004-.035.008-.054.004-.032.012-.063.016-.098v-.008A22.92 22.92 0 0 0 22.832 9l.008-.02c.004-.097.012-.19.015-.289 0-.007 0-.011.004-.02 0-.042.004-.085.004-.128zM14.06 18.625c-.106.2-.204.383-.282.543l-.027.059c-.297.609-.668 1.37-1.266 1.546-1.41.418-2.71-2.546-2.851-2.886l-.04-.09c.048-.078.09-.152.134-.223.054-.09.113-.183.171-.273.508-.742 1.88-2.36 3.63-1.317.136.082.261.176.374.274.043.039.082.082.125.12.067.063.13.13.192.2.054.067.11.137.16.211.035.047.066.094.101.145a4.482 4.482 0 0 1 .215.375c-.168.433-.414.898-.636 1.316zm6.265-1.195l-.12.554c-.333 1.504-.673 3.063-1.442 4.407-.258.453-.524.71-.696.691-.195-.02-.73-.324-1.515-2.734-.113-.352-.211-.723-.313-1.118-.336-1.28-.71-2.71-1.8-3.632-.004 0-.004-.004-.008-.008a3.856 3.856 0 0 0-.47-.332c-1.616-.965-3.44-.363-4.76 1.566-.071.106-.145.219-.22.344-.597.984-.964 2.047-1.316 3.082-.152.45-.312.914-.488 1.363-.27.696-.524 1.254-1.063 1.528-.48-.118-.996-1.368-1.195-1.856l-.05-.125c-1.438-3.469-2.005-7.37-2.556-11.144-.078-.532-.152-1.059-.23-1.586-.43-2.844.445-6.18 3.36-7.211C5.917 1.05 6.452.98 7.02.98c.52 0 1.058.06 1.593.153.051.137.172.25.332.273.02 0 .04.004.059.004a.426.426 0 0 0 .312-.14 21.02 21.02 0 0 1 1.528.394c1.21.688 1.886 1.223 2.246 1.785a.43.43 0 0 0 .36.196.425.425 0 0 0 .355-.652c-.29-.45-.703-.86-1.325-1.302.118-.046.258-.097.438-.164.059-.02.117-.043.176-.07l.07-.027c.004-.004.008-.004.008-.004 1.297-.535 2.672-.696 3.91-.5.047.008.094.02.14.027a5.411 5.411 0 0 1 1.965.75c1.317.844 2.2 1.918 2.497 3.02 0 .007.003.011.003.02a10.652 10.652 0 0 1 .317 1.94c.144 1.985-.172 4.098-.61 6.153l-.007.035a72.76 72.76 0 0 1-.399 1.758.41.41 0 1 0-.164.7c-.02.073-.035.144-.054.218-.157.64-.31 1.273-.446 1.883zm0 0"/>
</svg>
